dist/img/stack/stack-7.svg

<svg width="110" height="110" viewBox="0 0 110 110" fill="none" xmlns="http://www.w3.org/2000/svg">
<path d="M67.9672 59.4329C65.1238 59.4329 62.5747 60.6923 60.8291 62.6752L56.3561 59.5093C56.831 58.2022 57.1036 56.7988 57.1036 55.3298C57.1036 53.8863 56.8404 52.5064 56.3812 51.2187L60.8442 48.0863C62.5897 50.0592 65.1321 51.3117 67.9672 51.3117C73.2152 51.3117 77.4855 47.0431 77.4855 41.7954C77.4855 36.5477 73.2152 32.2791 67.9672 32.2791C62.7191 32.2791 58.4488 36.5477 58.4488 41.7954C58.4488 42.7347 58.5908 43.6404 58.8455 44.4982L54.3795 47.6321C52.5139 45.3182 49.8278 43.7026 46.7673 43.2094V37.8281C51.0789 36.9227 54.3275 33.0927 54.3275 28.5163C54.3275 23.2687 50.0572 19 44.8092 19C39.5611 19 35.2908 23.2687 35.2908 28.5163C35.2908 33.0314 38.4553 36.8142 42.6806 37.7842V43.2354C36.9142 44.2474 32.5148 49.2788 32.5148 55.3298C32.5148 61.4103 36.9577 66.4602 42.7658 67.4378V73.1939C38.4973 74.1319 35.2908 77.9378 35.2908 82.4837C35.2908 87.7313 39.5611 92 44.8092 92C50.0572 92 54.3275 87.7313 54.3275 82.4837C54.3275 77.9378 51.1211 74.1319 46.8525 73.1939V67.4376C49.7923 66.9425 52.4519 65.396 54.336 63.0862L58.8388 66.2726C58.5889 67.1227 58.4488 68.0194 58.4488 68.9492C58.4488 74.1969 62.7191 78.4656 67.9672 78.4656C73.2152 78.4656 77.4855 74.1969 77.4855 68.9492C77.4855 63.7016 73.2152 59.4329 67.9672 59.4329ZM67.9672 37.1814C70.5121 37.1814 72.582 39.2517 72.582 41.7954C72.582 44.3391 70.5121 46.4092 67.9672 46.4092C65.4223 46.4092 63.3524 44.3391 63.3524 41.7954C63.3524 39.2517 65.4223 37.1814 67.9672 37.1814ZM40.1942 28.5163C40.1942 25.9727 42.2643 23.9025 44.8092 23.9025C47.3541 23.9025 49.424 25.9727 49.424 28.5163C49.424 31.06 47.3541 33.1302 44.8092 33.1302C42.2643 33.1302 40.1942 31.06 40.1942 28.5163ZM49.424 82.4837C49.424 85.0273 47.3541 87.0975 44.8092 87.0975C42.2643 87.0975 40.1942 85.0273 40.1942 82.4837C40.1942 79.94 42.2643 77.8698 44.8092 77.8698C47.3541 77.8698 49.424 79.94 49.424 82.4837ZM44.8088 61.7646C41.2595 61.7646 38.372 58.8783 38.372 55.3298C38.372 51.7812 41.2595 48.8944 44.8088 48.8944C48.358 48.8944 51.2454 51.7812 51.2454 55.3298C51.2454 58.8783 48.358 61.7646 44.8088 61.7646ZM67.9672 73.5632C65.4223 73.5632 63.3524 71.4929 63.3524 68.9492C63.3524 66.4056 65.4223 64.3354 67.9672 64.3354C70.5121 64.3354 72.582 66.4056 72.582 68.9492C72.582 71.4929 70.5121 73.5632 67.9672 73.5632Z" fill="#B7B7BE"/>
</svg>

<svg width="110" height="110" viewBox="0 0 110 110" fill="none" xmlns="http://www.w3.org/2000/svg"><path d="M67.967 59.433c-2.843 0-5.392 1.26-7.138 3.242l-4.473-3.166c.475-1.307.748-2.71.748-4.18 0-1.443-.264-2.823-.723-4.11l4.463-3.133c1.746 1.973 4.288 3.226 7.123 3.226 5.248 0 9.519-4.269 9.519-9.517 0-5.247-4.27-9.516-9.519-9.516-5.248 0-9.518 4.269-9.518 9.516 0 .94.142 1.845.397 2.703l-4.466 3.134a12.287 12.287 0 00-7.613-4.423v-5.38c4.312-.906 7.56-4.736 7.56-9.313 0-5.247-4.27-9.516-9.518-9.516-5.248 0-9.518 4.269-9.518 9.516 0 4.515 3.164 8.298 7.39 9.268v5.451c-5.767 1.012-10.166 6.044-10.166 12.095 0 6.08 4.443 11.13 10.25 12.108v5.756c-4.268.938-7.474 4.744-7.474 9.29 0 5.247 4.27 9.516 9.518 9.516 5.248 0 9.519-4.269 9.519-9.516 0-4.546-3.207-8.352-7.476-9.29v-5.756c2.94-.496 5.6-2.042 7.484-4.352l4.503 3.187c-.25.85-.39 1.746-.39 2.676 0 5.248 4.27 9.517 9.518 9.517 5.248 0 9.519-4.27 9.519-9.517s-4.27-9.516-9.519-9.516zm0-22.252a4.62 4.62 0 014.615 4.614 4.62 4.62 0 01-4.615 4.614 4.62 4.62 0 01-4.615-4.614 4.62 4.62 0 014.615-4.614zm-27.773-8.665a4.62 4.62 0 014.615-4.613 4.62 4.62 0 014.615 4.613 4.62 4.62 0 01-4.615 4.614 4.62 4.62 0 01-4.615-4.614zm9.23 53.968a4.62 4.62 0 01-4.615 4.614 4.62 4.62 0 01-4.615-4.614 4.62 4.62 0 014.615-4.614 4.62 4.62 0 014.615 4.614zm-4.615-20.72a6.443 6.443 0 01-6.437-6.434 6.443 6.443 0 016.437-6.436 6.443 6.443 0 016.436 6.436 6.443 6.443 0 01-6.436 6.435zm23.158 11.8a4.62 4.62 0 01-4.615-4.615 4.62 4.62 0 014.615-4.614 4.62 4.62 0 014.615 4.614 4.62 4.62 0 01-4.615 4.614z" fill="#B7B7BE"/></svg>
